src/assets/flags/gm.svg

<?xml version="1.0" encoding="UTF-8"?>
<svg xmlns="http://www.w3.org/2000/svg" xmlns:xlink="http://www.w3.org/1999/xlink" width="25px" height="19px" viewBox="0 0 25 19" version="1.1">
<g id="surface1">
<path style=" stroke:none;fill-rule:evenodd;fill:rgb(100%,0%,0%);fill-opacity:1;" d="M 0 -3.167969 L 25 -3.167969 L 25 5.277344 L 0 5.277344 Z M 0 -3.167969 "/>
<path style=" stroke:none;fill-rule:evenodd;fill:rgb(100%,100%,100%);fill-opacity:1;" d="M 0 5.277344 L 25 5.277344 L 25 6.691406 L 0 6.691406 Z M 0 5.277344 "/>
<path style=" stroke:none;fill-rule:evenodd;fill:rgb(0%,0%,60.000002%);fill-opacity:1;" d="M 0 6.6875 L 25 6.6875 L 25 12.308594 L 0 12.308594 Z M 0 6.6875 "/>
<path style=" stroke:none;fill-rule:evenodd;fill:rgb(100%,100%,100%);fill-opacity:1;" d="M 0 12.3125 L 25 12.3125 L 25 13.722656 L 0 13.722656 Z M 0 12.3125 "/>
<path style=" stroke:none;fill-rule:evenodd;fill:rgb(0%,60.000002%,0%);fill-opacity:1;" d="M 0 13.722656 L 25 13.722656 L 25 22.167969 L 0 22.167969 Z M 0 13.722656 "/>
</g>
</svg>

<svg xmlns="http://www.w3.org/2000/svg" width="25" height="19" viewBox="0 0 25 19"><path d="M0-3.168h25v8.445H0Zm0 0" style="stroke:none;fill-rule:evenodd;fill:red;fill-opacity:1"/><path d="M0 5.277h25v1.414H0Zm0 0" style="stroke:none;fill-rule:evenodd;fill:#fff;fill-opacity:1"/><path d="M0 6.688h25v5.62H0Zm0 0" style="stroke:none;fill-rule:evenodd;fill:#009;fill-opacity:1"/><path d="M0 12.313h25v1.41H0Zm0 0" style="stroke:none;fill-rule:evenodd;fill:#fff;fill-opacity:1"/><path d="M0 13.723h25v8.445H0Zm0 0" style="stroke:none;fill-rule:evenodd;fill:#090;fill-opacity:1"/></svg>
